X:398
T:Heather on the Hill
C:Dan R MacDonald
B:Fiddle Music of Prince Edward Island, 1996
Z:Nigel Gatherer
M:4/4
L:1/8
K:G
B | G2 BA BGGB | dedB G/G/G GB | d2 dB degd | egdB A/A/A AB |
    G2 BA BGGB | dedB G/G/G GB | d2 dB degd | egdB G/G/G G :|
B | gage  gdde | gbeg degd     | e<aab ageg | abag e/e/e ef |
    gage  gdde | gbeg degd     | e<gab agea | gedB G/G/G G :|
<end>
<start>
